static/images/mobile/copyright/wikipedia-tagline-mr.svg

<?xml version="1.0" encoding="UTF-8"?>
<svg width="79px" height="18px" viewBox="0 0 79 18" version="1.1" xmlns="http://www.w3.org/2000/svg" xmlns:xlink="http://www.w3.org/1999/xlink">
    <title>mr-tagline</title>
    <g id="Page-1" stroke="none" stroke-width="1" fill="none" fill-rule="evenodd">
        <path d="M8.351872,5.31124 L8.351872,13.69546 L7.167989,12.51158 L7.167989,9.80094 L4.412065,9.80094 C4.412062,10.29261 4.416365,10.72821 4.425005,11.10774 C4.429305,11.31476 4.386185,11.45277 4.295619,11.52177 C4.261108,11.54773 4.129569,11.56063 3.90099,11.56063 C3.80179,11.56063 3.316594,11.04524 2.445397,10.01447 C2.372077,9.93247 2.240534,9.78589 2.050769,9.57455 C1.917069,9.41929 1.85022,9.26619 1.850221,9.11523 C1.85022,8.82196 2.03783,8.67532 2.41305,8.67532 C2.641631,8.67532 2.960783,8.67932 3.370507,8.68822 L3.370507,5.31124 L0.886294,5.31124 L7.10542736e-15,4.41848 L23.606591,4.41854 L24.492886,5.3113 L17.648362,5.3113 L17.648362,7.40736 C17.924378,7.39446 18.230591,7.39016 18.567003,7.39446 C18.92065,7.39846 19.358405,7.42036 19.880272,7.45916 C20.570321,7.61443 21.102959,7.8883 21.47819,8.28076 C21.987097,8.81556 22.241556,9.42799 22.241568,10.11804 C22.241556,10.68303 22.041008,11.32134 21.639923,12.03296 C21.445832,12.37368 21.092177,12.92141 20.578957,13.67616 L19.627969,12.75105 C19.951424,12.50953 20.380554,12.14725 20.915361,11.66421 C21.445832,11.06903 21.711073,10.49758 21.711085,9.94984 C21.711073,9.497 21.53209,9.11531 21.174133,8.80478 C20.829092,8.50719 20.266264,8.33899 19.485644,8.30017 C19.127667,8.28287 18.51524,8.33037 17.648362,8.44249 L17.648362,13.68258 L16.574457,12.60221 L16.574457,8.35834 L14.452525,8.35834 C13.917726,8.35835 13.495065,8.49205 13.184542,8.75944 C12.848135,9.04409 12.679933,9.4495 12.679936,9.97567 C12.679933,10.6873 12.938705,11.36657 13.456252,12.0135 C13.456249,12.0135 13.943603,12.57417 14.918315,13.69552 L14.491341,13.69552 C13.740898,13.16072 13.102594,12.56339 12.576427,11.90352 C11.912243,11.07114 11.580152,10.29914 11.580154,9.58751 C11.580152,9.15192 11.765606,8.74219 12.136514,8.35834 L11.146711,8.35834 L10.085745,7.28444 L16.574457,7.28444 L16.574457,5.3113 L8.351872,5.31124 Z M7.16799,5.31124 L4.412066,5.31124 L4.412066,8.68822 L7.16799,8.68822 L7.16799,5.31124 Z M7.61447,15.37107 L6.851092,14.57535 C7.329824,14.20444 7.845212,14.03192 8.397256,14.0578 C8.863048,14.0794 9.255519,14.30363 9.57467,14.73061 C9.867946,15.12739 10.014582,15.5673 10.014582,16.05035 C10.014582,16.62827 9.775219,17.07034 9.296489,17.37655 C8.891082,17.63964 8.38432,17.77118 7.776203,17.77118 C6.913633,17.77118 5.99068,17.35067 5.00734,16.50967 C4.222405,15.83686 3.540972,15.04329 2.96304,14.12896 L3.370606,14.12896 C3.745833,14.77158 4.39492,15.40126 5.317867,16.018 C6.288267,16.66493 7.124963,16.98839 7.827957,16.9884 C8.988121,16.98839 9.568202,16.65199 9.5682,15.97918 C9.568202,15.75491 9.453911,15.53711 9.225327,15.32578 C8.996747,15.11877 8.770322,15.01526 8.54605,15.01526 C8.179459,15.01526 7.868933,15.13386 7.61447,15.37107 M58.806676,5.3113 L58.806676,7.80198 C58.936056,7.68554 59.030939,7.60575 59.091326,7.56262 C59.237957,7.4548 59.382438,7.38148 59.524769,7.34266 C59.818037,7.26076 60.091904,7.21975 60.346371,7.21975 C61.006232,7.21975 61.551809,7.45049 61.983105,7.91196 C62.414382,8.36913 62.630025,8.93196 62.630035,9.60045 C62.630025,10.13525 62.440259,10.63985 62.060737,11.11427 C61.776078,11.48086 61.329697,11.78708 60.721591,12.03291 L60.249331,11.11427 C60.861751,10.82962 61.271473,10.60535 61.478499,10.44146 C61.935654,10.0835 62.164236,9.69102 62.164245,9.26405 C62.164236,8.88021 61.985252,8.53302 61.627293,8.22249 C61.398702,8.02841 61.042891,7.9551 60.559858,8.00253 C60.331268,8.02413 60.050932,8.17505 59.718848,8.45538 C59.391064,8.73141 59.087006,9.06997 58.806676,9.47106 L58.806676,13.69552 L57.732772,12.60868 L57.732772,10.72611 C57.547314,10.93313 57.273447,11.11211 56.91117,11.26306 C56.548885,11.4097 56.223264,11.48302 55.934305,11.48302 C55.308936,11.48302 54.774141,11.26953 54.329918,10.84256 C53.890004,10.41559 53.670047,9.88942 53.670048,9.26405 C53.670047,8.62575 53.879221,8.09958 54.297571,7.68554 C54.715917,7.26719 55.244243,7.05802 55.882551,7.05801 C56.693366,7.05802 57.310106,7.40305 57.732772,8.0931 L57.732772,5.3113 L51.004594,5.3113 L51.004594,13.69552 L49.969506,12.67337 L49.969506,8.53948 L47.245928,8.53948 L47.245928,9.98861 C47.220048,10.23445 47.146728,10.3854 47.025972,10.44146 C46.836203,10.42426 46.683097,10.34226 46.566651,10.19563 L45.803273,9.23817 C45.501371,8.85864 45.350421,8.53733 45.350422,8.27424 C45.350421,7.8214 45.525092,7.57125 45.874436,7.5238 L49.969506,7.5238 L49.969506,5.3113 L43.060288,5.3113 L43.060288,13.69552 L41.999322,12.62162 L41.999322,5.3113 L38.939141,5.31126 L38.939141,13.69548 L37.729381,12.48572 L37.729,7.866 L34.533545,7.86668 C34.731934,7.93998 35.061868,8.15564 35.523348,8.51361 C36.045201,8.91471 36.36004,9.23386 36.467867,9.47106 C36.549807,9.6479 36.590779,9.8506 36.590784,10.07918 C36.590779,10.51909 36.418264,10.92019 36.073239,11.28247 C35.728205,11.64475 35.335735,11.85824 34.895826,11.92293 L35.568634,13.54673 L35.174006,13.95429 L34.39122,12.07819 C34.223015,12.12999 34.028936,12.15579 33.808983,12.15579 C33.429448,12.15579 33.105983,12.04797 32.838587,11.83232 C32.549624,11.59943 32.405144,11.29753 32.405144,10.92662 C32.405144,10.284 32.713512,9.95623 33.330254,9.94328 C33.636466,9.93428 33.897394,10.04028 34.11304,10.26028 C34.272613,10.42417 34.378279,10.61178 34.430036,10.82311 C34.680179,10.82311 34.897979,10.72391 35.083436,10.52552 C35.273198,10.32713 35.368081,10.10286 35.368085,9.85271 C35.368081,9.42143 35.240852,9.126 34.986396,8.96642 L32.495714,7.38791 L32.495714,6.87036 L37.729,6.87 L37.729381,5.31126 L38.635084,5.3113 L37.742,4.418 L65.64483,4.41854 C65.256671,3.72846 64.756379,3.08584 64.143952,2.49065 C63.380575,1.74885 62.699142,1.37795 62.099651,1.37793 C61.940693,1.37793 61.6993494,1.40011776 61.3756182,1.44449327 L61.206887,1.46853 L60.029474,0.27171 C60.637592,0.0906 61.170231,-2.84217094e-14 61.627392,-2.84217094e-14 C62.261386,-2.84217094e-14 62.96007,0.42268 63.723447,1.26799 C63.857146,1.41464 64.353126,2.06372 65.211387,3.21525 C65.3888301,3.45184714 65.6153876,3.78033245 65.8910599,4.20069962 L66.032989,4.41854 L69.092968,4.41854 C68.8308635,4.70144988 68.6470186,4.98837035 68.5414333,5.27929244 L68.575425,5.3113 L66.362923,5.3113 L66.362923,13.69552 L65.301957,12.62162 L65.301957,5.3113 L58.806676,5.3113 Z M70.535623,4.28915 C71.229991,4.28015 71.848891,4.77004 72.392311,5.75768 C72.607951,6.15447 72.726551,6.65045 72.748121,7.24562 C72.748121,7.29312 72.739121,7.45912 72.722221,7.74376 C72.640221,8.95568 72.105471,9.96273 71.11783,10.76492 L72.851601,13.46909 L72.566981,13.69552 L70.671478,10.95253 C70.395452,11.08624 70.084926,11.11643 69.739898,11.04313 C69.028274,10.88786 68.672463,10.56224 68.672463,10.06626 C68.672463,9.53578 68.892418,9.2231 69.332332,9.12821 C69.703237,9.12822 69.864969,9.12421 69.81753,9.11531 C70.002981,9.14121 70.190591,9.24902 70.38036,9.43878 C70.41917,9.47758 70.481709,9.56601 70.567969,9.70402 C70.658539,9.84203 70.703822,9.92829 70.703825,9.96279 C71.398193,9.63933 71.745379,8.96221 71.745383,7.93143 C71.417601,8.19877 70.971219,8.33247 70.406237,8.33247 C69.923193,8.28507 69.532879,8.06292 69.235293,7.66613 C68.954955,7.29954 68.814787,6.8661 68.814788,6.3658 C68.814787,5.83101 68.965737,5.36306 69.267639,4.96196 C69.595415,4.52206 70.018076,4.29779 70.535623,4.28915 Z M77.658331,4.4186 L78.557561,5.31136 L76.325651,5.31136 L76.325651,13.69558 L75.264681,12.60874 L75.264681,5.31136 L72.644621,5.31136 C72.467781,4.96634 72.230581,4.66875 71.932991,4.4186 L77.658331,4.4186 Z M56.425972,7.98312 C55.79629,7.98313 55.308936,8.10605 54.963909,8.35187 C54.489492,8.68828 54.23072,9.13682 54.187593,9.69749 C54.161713,10.05115 54.258753,10.3358 54.478712,10.55144 C54.65985,10.72396 54.909996,10.81021 55.229151,10.81021 C55.686312,10.81021 56.210325,10.57732 56.801192,10.11153 C57.42224,9.61986 57.732767,9.14976 57.732772,8.70122 L57.732772,8.48773 C57.353235,8.15133 56.917635,7.98313 56.425972,7.98312 Z M70.406237,4.78088 C69.953383,4.78988 69.72696,5.16473 69.72696,5.90654 C69.72696,6.23432 69.78949,6.55994 69.91457,6.8834 C70.143149,7.47858 70.531307,7.77617 71.079044,7.77617 C71.432696,7.70287 71.609527,7.37508 71.609527,6.79283 C71.609527,6.29255 71.529737,5.8591 71.370163,5.4925 C71.158829,5.00947 70.837521,4.77226 70.406237,4.78088 Z M36.144402,4.4185 L37.024227,5.31126 L31.421809,5.3113 L30.529045,4.41854 L36.144402,4.4185 Z" id="mr-tagline" fill="#000000" fill-rule="nonzero"></path>
    </g>
</svg>

<svg xmlns="http://www.w3.org/2000/svg" width="79" height="18"><path fill="#000" fill-rule="nonzero" d="M8.352 5.311v8.384l-1.184-1.183V9.8H4.412c0 .492.004.927.013 1.307.004.207-.039.345-.13.414-.034.026-.165.039-.394.039-.1 0-.584-.516-1.456-1.547l-.394-.44c-.134-.155-.2-.308-.2-.459 0-.293.187-.44.562-.44.229 0 .548.004.958.013V5.311H.886L0 4.418h23.607l.886.893h-6.845v2.096c.276-.013.583-.017.919-.013.354.004.791.026 1.313.065.69.155 1.223.43 1.598.822.51.535.764 1.147.764 1.837 0 .565-.201 1.203-.602 1.915-.194.34-.548.888-1.061 1.643l-.951-.925c.323-.241.753-.604 1.287-1.087.53-.595.796-1.166.796-1.714 0-.453-.179-.835-.537-1.145-.345-.298-.908-.466-1.688-.505-.358-.017-.97.03-1.838.142v5.24l-1.074-1.08V8.358h-2.121c-.535 0-.958.134-1.268.401-.337.285-.505.69-.505 1.217 0 .711.259 1.39.776 2.037l1.462 1.683h-.427a9.416 9.416 0 0 1-1.915-1.792c-.664-.833-.996-1.605-.996-2.316 0-.436.186-.846.557-1.23h-.99l-1.061-1.074h6.488V5.311H8.352Zm-1.184 0H4.412v3.377h2.756V5.311Zm.446 10.06-.763-.796c.479-.37.994-.543 1.546-.517.466.021.859.246 1.178.673.293.396.44.836.44 1.32 0 .577-.24 1.02-.719 1.326-.405.263-.912.394-1.52.394-.862 0-1.785-.42-2.769-1.261a10.498 10.498 0 0 1-2.044-2.381h.408c.375.643 1.024 1.272 1.947 1.889.97.647 1.807.97 2.51.97 1.16 0 1.74-.336 1.74-1.009 0-.224-.114-.442-.343-.653-.228-.207-.455-.31-.679-.31-.367 0-.677.118-.932.355m51.193-10.06v2.491c.13-.116.224-.196.284-.24.147-.107.291-.18.434-.22.293-.081.567-.122.821-.122.66 0 1.206.23 1.637.692.431.457.647 1.02.647 1.688 0 .535-.19 1.04-.57 1.514-.284.367-.73.673-1.338.919l-.473-.919c.613-.284 1.022-.509 1.23-.673.457-.357.685-.75.685-1.177 0-.384-.179-.731-.537-1.042-.228-.194-.584-.267-1.067-.22-.229.022-.51.173-.841.453a5.243 5.243 0 0 0-.912 1.016v4.225l-1.074-1.087v-1.883c-.186.207-.46.386-.822.537-.362.147-.688.22-.977.22-.625 0-1.16-.213-1.604-.64a2.113 2.113 0 0 1-.66-1.579c0-.638.21-1.164.628-1.578.418-.419.946-.628 1.585-.628.81 0 1.427.345 1.85 1.035V5.311h-6.728v8.385l-1.035-1.023V8.54h-2.724v1.45c-.026.245-.1.396-.22.452a.636.636 0 0 1-.46-.245l-.763-.958c-.302-.38-.453-.7-.453-.964 0-.453.175-.703.524-.75h4.096V5.31h-6.91v8.385L42 12.622v-7.31h-3.06v8.383l-1.21-1.21-.001-4.619h-3.195c.198.074.528.29.99.648.521.4.836.72.944.957.082.177.123.38.123.608 0 .44-.173.841-.518 1.203-.345.363-.737.576-1.177.64l.673 1.625-.395.407-.783-1.876a1.981 1.981 0 0 1-.582.078c-.38 0-.703-.108-.97-.324a1.11 1.11 0 0 1-.434-.905c0-.643.309-.97.925-.984.306-.009.567.097.783.317.16.164.265.352.317.563.25 0 .468-.1.653-.297a.949.949 0 0 0 .285-.673c0-.432-.127-.727-.382-.887l-2.49-1.578V6.87h5.233V5.311h.906l-.893-.893h27.903a8.5 8.5 0 0 0-1.501-1.927c-.763-.742-1.445-1.113-2.044-1.113-.16 0-.4.022-.724.066l-.17.025L60.03.272C60.638.09 61.17 0 61.627 0c.634 0 1.333.423 2.096 1.268.134.147.63.796 1.488 1.947.178.237.404.565.68.986l.142.218h3.06c-.262.282-.446.57-.552.86l.034.032h-2.212v8.385l-1.061-1.074v-7.31h-6.495ZM70.536 4.29c.694-.009 1.313.481 1.856 1.469.216.396.335.892.356 1.488 0 .047-.009.213-.026.498-.082 1.212-.617 2.219-1.604 3.02l1.734 2.705-.285.227-1.896-2.743c-.276.133-.586.163-.931.09-.712-.155-1.068-.48-1.068-.977 0-.53.22-.843.66-.938.371 0 .533-.004.486-.013.185.026.373.134.562.324.04.039.102.127.188.265.09.138.136.224.136.259.694-.324 1.041-1 1.041-2.032-.327.268-.774.401-1.339.401a1.604 1.604 0 0 1-1.17-.666c-.281-.366-.421-.8-.421-1.3 0-.535.15-1.003.453-1.404.327-.44.75-.664 1.268-.673Zm7.122.13.9.892h-2.232v8.385l-1.061-1.087V5.31h-2.62a2.858 2.858 0 0 0-.712-.892h5.725ZM56.426 7.983c-.63 0-1.117.123-1.462.369-.475.336-.733.785-.776 1.345-.026.354.07.639.29.854.182.173.432.26.751.26.457 0 .981-.234 1.572-.7.621-.491.932-.961.932-1.41v-.213a1.913 1.913 0 0 0-1.307-.505Zm13.98-3.202c-.453.009-.679.384-.679 1.126 0 .327.062.653.188.976.228.596.616.893 1.164.893.354-.073.53-.4.53-.983 0-.5-.08-.934-.239-1.3-.211-.484-.532-.72-.964-.712Zm-34.262-.362.88.892h-5.602l-.893-.892h5.615Z"/></svg>
